client/public/static/logos/parallel-logo-white.svg

<svg fill="none" height="49" viewBox="0 0 182 49" width="182" xmlns="http://www.w3.org/2000/svg"><path d="m2.18419 48.2406c-.16783.003-.33451-.0284-.48973-.0923s-.29569-.159-.41271-.2793c-.24884-.2124-.371594-.5143-.371594-.9025v-35.1422c0-.3899.124414-.6901.371594-.9025.11702-.1203.25749-.2154.41271-.2793s.3219-.0953.48973-.0923h4.2468c.17619-.0064.35182.0233.51614.0872.16431.0639.31384.1607.43939.2844.24884.2489.3716.5475.3716.9025v2.1234c1.87456-2.6194 4.68968-3.9283 8.44048-3.9283 3.575 0 6.3171 1.133 8.2282 3.3974 1.9111 2.2296 2.9363 5.2372 3.0789 9.0245.0349.4246.0531 1.0617.0531 1.911 0 .8494-.0166 1.4864-.0531 1.9111-.1061 3.7159-1.133 6.7235-3.0789 9.0244-1.9111 2.2644-4.6532 3.3975-8.2282 3.3975-3.5384 0-6.24575-1.2558-8.12197-3.7691v12.0503c0 .3899-.12442.6901-.3716.9025-.21234.2488-.51426.3716-.90244.3716zm11.99721-15.2885c3.7873 0 5.8045-2.3357 6.0517-7.0072.042-.5298.0597-1.0612.0531-1.5926 0-.7083-.0166-1.2392-.0531-1.5925-.2489-4.6715-2.2644-7.0072-6.0517-7.0072-2.0172 0-3.5219.6552-4.51222 1.9641-.99037 1.3105-1.52122 2.9031-1.59255 4.7777-.03484.4246-.05309 1.0965-.05309 2.0172s.01659 1.6091.05309 2.0703c.07133 1.77.61877 3.273 1.64563 4.5122 1.02684 1.2392 2.51324 1.858 4.45914 1.858zm27.2989 5.7332c-1.8048 0-3.4671-.3534-4.9899-1.0617-1.4864-.7432-2.6709-1.7336-3.5567-2.9728-.8368-1.1982-1.2818-2.6261-1.2741-4.0875 0-2.4054.9738-4.353 2.9197-5.8394 1.9476-1.4864 4.6184-2.495 8.0158-3.0258l7.2727-1.0617v-1.1148c0-1.5212-.3882-2.6708-1.1679-3.4505-.778-.7797-2.0172-1.1679-3.7159-1.1679-1.1679 0-2.1052.2123-2.8135.637-.6357.3696-1.224.8153-1.7519 1.3271l-.8493.8494c-.141.4247-.4064.637-.7963.637h-4.1406c-.3127.0023-.6152-.1112-.8494-.3185-.108-.1125-.1919-.2458-.2467-.3919-.0547-.146-.0792-.3017-.0718-.4574.0365-.8842.4612-1.8746 1.2741-2.9728.8493-1.133 2.1416-2.1068 3.8752-2.9197 1.7352-.8493 3.8752-1.274 6.4232-1.274 4.1772 0 7.2196.9373 9.1307 2.8135 1.911 1.8745 2.8665 4.3347 2.8665 7.3788v16.6687c.0031.1678-.0283.3345-.0922.4897s-.159.2957-.2794.4127c-.2123.2489-.5125.3716-.9024.3716h-4.406c-.1679.0031-.3346-.0283-.4898-.0922-.1552-.064-.2957-.159-.4127-.2794-.1203-.117-.2154-.2575-.2793-.4127s-.0953-.3219-.0923-.4897v-2.0703c-.778 1.133-1.8745 2.0703-3.2913 2.8135-1.415.7083-3.1851 1.0617-5.3085 1.0617zm1.8049-5.0962c1.9476 0 3.5401-.637 4.7777-1.911 1.2392-1.2741 1.858-3.1138 1.858-5.5209v-1.0617l-5.3085.8494c-4.0693.637-6.1048 1.999-6.1048 4.0875 0 1.1331.4612 2.0172 1.3802 2.6543.9555.6021 2.0886.9024 3.3974.9024zm21.8329 4.5653c-.1678.0031-.3345-.0283-.4898-.0922-.1552-.064-.2956-.159-.4127-.2794-.1203-.117-.2154-.2575-.2793-.4127s-.0953-.3219-.0922-.4897v-25.003c-.0065-.1762.0232-.3519.0871-.5162s.1607-.3138.2844-.4394c.1171-.1203.2575-.2154.4127-.2793.1553-.0639.322-.0953.4898-.0923h4.353c.1761-.0064.3518.0233.5161.0872s.3138.1607.4394.2844c.1238.1256.2206.2751.2845.4394s.0935.34.0871.5162v2.1764c1.77-2.3357 4.3181-3.5036 7.6426-3.5036h2.2295c.3899 0 .6901.1244.9025.3716.2488.2124.3716.5143.3716.9025v3.8752c.003.1678-.0284.3345-.0923.4897s-.159.2957-.2793.4127c-.2124.2489-.5143.3716-.9025.3716h-4.1937c-1.6639 0-2.9727.4778-3.9283 1.4333-.9555.9555-1.4333 2.2644-1.4333 3.9283v14.5453c.0031.1678-.0283.3345-.0922.4897s-.159.2957-.2794.4127c-.117.1204-.2574.2154-.4127.2794-.1552.0639-.3219.0953-.4897.0922h-4.7246zm28.5663.5309c-1.8048 0-3.4671-.3534-4.9899-1.0617-1.4864-.7432-2.6709-1.7336-3.5567-2.9728-.8368-1.1982-1.2818-2.6261-1.2741-4.0875 0-2.4054.9738-4.353 2.9197-5.8394s4.6184-2.495 8.0158-3.0258l7.2728-1.0617v-1.1148c0-1.5212-.39-2.6708-1.168-3.4505s-2.0172-1.1679-3.716-1.1679c-1.1678 0-2.1068.2123-2.8135.637-.6355.3697-1.2238.8154-1.7518 1.3271l-.8493.8494c-.141.4247-.4064.637-.7963.637h-4.1406c-.3127.0021-.6152-.1113-.8494-.3185-.108-.1125-.1919-.2458-.2467-.3919-.0547-.146-.0792-.3017-.0718-.4574.0349-.8842.4595-1.8746 1.274-2.9728.8494-1.133 2.14-2.1068 3.8753-2.9197 1.7335-.8493 3.8752-1.274 6.4232-1.274 4.1759 0 7.2199.9373 9.1309 2.8135 1.911 1.8745 2.866 4.3347 2.866 7.3788v16.6687c.003.1678-.028.3344-.092.4896s-.159.2957-.279.4128c-.213.2489-.513.3716-.903.3716h-4.406c-.168.0031-.334-.0283-.489-.0922-.156-.064-.296-.159-.413-.2794-.12-.1171-.215-.2576-.279-.4128s-.096-.3218-.093-.4896v-2.0703c-.778 1.133-1.876 2.0703-3.2911 2.8135-1.415.7083-3.1851 1.0617-5.3085 1.0617zm1.8049-5.0962c1.9459 0 3.5385-.637 4.7777-1.911 1.239-1.2741 1.858-3.1138 1.858-5.5209v-1.0617l-5.3085.8494c-4.0693.637-6.1048 1.999-6.1048 4.0875 0 1.1331.4595 2.0172 1.3802 2.6543.9555.6021 2.0886.9024 3.3974.9024zm21.8857 4.5653c-.168.0032-.334-.0282-.49-.0921-.155-.0639-.295-.159-.412-.2795-.121-.1169-.216-.2573-.28-.4126-.064-.1552-.095-.322-.092-.4898v-35.14228c0-.38984.123-.6901.372-.902442.117-.120429.257-.215551.412-.279471.156-.063921.322-.095276.49-.092124h4.459c.389 0 .691.124418.903.371595.247.212342.371.514262.371.902442v35.14228c.003.1678-.028.3344-.092.4896s-.159.2957-.279.4128c-.212.2489-.514.3716-.903.3716zm14.101 0c-.168.0032-.335-.0282-.49-.0921s-.296-.159-.412-.2795c-.121-.1169-.216-.2573-.28-.4126-.064-.1552-.095-.322-.092-.4898v-35.14228c0-.38984.123-.6901.372-.902442.116-.120429.257-.215551.412-.279471.155-.063921.322-.095276.49-.092124h4.459c.388 0 .69.124418.903.371595.247.212342.371.514262.371.902442v35.14228c.003.1678-.028.3344-.092.4896s-.159.2957-.279.4128c-.213.2489-.515.3716-.903.3716zm24.718.5309c-3.965 0-7.114-1.1331-9.449-3.3975-2.301-2.2644-3.522-5.486-3.663-9.6614l-.053-1.3272c0-4.4243 1.149-7.9096 3.45-10.4577 2.336-2.5481 5.556-3.8221 9.662-3.8221 4.21 0 7.448 1.274 9.714 3.8221 2.299 2.5481 3.451 5.9455 3.451 10.1923v1.1148c.003.1678-.029.3344-.093.4896s-.159.2957-.279.4128c-.126.1237-.275.2204-.439.2842-.165.0639-.34.0937-.516.0874h-17.625v.4247c.07 1.9824.601 3.628 1.593 4.9369 1.025 1.2741 2.424 1.9111 4.194 1.9111 2.017 0 3.662-.8129 4.936-2.4419.319-.3899.566-.6188.744-.6901.176-.1062.477-.1593.902-.1593h4.672c.318 0 .584.0879.796.2654.119.0826.216.194.281.3239.065.13.096.2742.09.4193 0 .8494-.514 1.858-1.539 3.0259-.992 1.133-2.425 2.1234-4.3 2.9727-1.876.8494-4.053 1.2741-6.529 1.2741zm5.786-16.7749v-.1062c0-2.0885-.531-3.7507-1.593-4.9899-1.026-1.2741-2.442-1.9111-4.246-1.9111-1.805 0-3.222.637-4.247 1.9111-1.027 1.2392-1.54 2.903-1.54 4.9899v.1062zm14.286 16.244c-.167.0032-.334-.0282-.489-.0921-.156-.0639-.296-.159-.413-.2795-.121-.1169-.216-.2573-.28-.4126-.064-.1552-.095-.322-.092-.4898v-35.14228c0-.38984.123-.6901.372-.902442.117-.120429.257-.215551.413-.279471.155-.063921.322-.095276.489-.092124h4.46c.388 0 .69.124418.902.371595.247.212342.372.514262.372.902442v35.14228c.002.1678-.029.3344-.093.4896s-.159.2957-.279.4128c-.212.2489-.514.3716-.902.3716z" fill="#fff"/></svg>

<svg width="182" height="49" viewBox="0 0 182 49" fill="none" xmlns="http://www.w3.org/2000/svg">
<path d="M2.18419 48.2406C2.01636 48.2436 1.84968 48.2122 1.69446 48.1483C1.53924 48.0844 1.39877 47.9893 1.28175 47.869C1.03291 47.6566 0.910156 47.3547 0.910156 46.9665V11.8243C0.910156 11.4344 1.03457 11.1342 1.28175 10.9218C1.39877 10.8015 1.53924 10.7064 1.69446 10.6425C1.84968 10.5786 2.01636 10.5472 2.18419 10.5502H6.43099C6.60718 10.5438 6.78281 10.5735 6.94713 10.6374C7.11144 10.7013 7.26097 10.7981 7.38652 10.9218C7.63536 11.1707 7.75812 11.4693 7.75812 11.8243V13.9477C9.63268 11.3283 12.4478 10.0194 16.1986 10.0194C19.7736 10.0194 22.5157 11.1524 24.4268 13.4168C26.3379 15.6464 27.3631 18.654 27.5057 22.4413C27.5406 22.8659 27.5588 23.503 27.5588 24.3523C27.5588 25.2017 27.5422 25.8387 27.5057 26.2634C27.3996 29.9793 26.3727 32.9869 24.4268 35.2878C22.5157 37.5522 19.7736 38.6853 16.1986 38.6853C12.6602 38.6853 9.95285 37.4295 8.07663 34.9162V46.9665C8.07663 47.3564 7.95221 47.6566 7.70503 47.869C7.49269 48.1178 7.19077 48.2406 6.80259 48.2406H2.18419ZM14.1814 32.9521C17.9687 32.9521 19.9859 30.6164 20.2331 25.9449C20.2751 25.4151 20.2928 24.8837 20.2862 24.3523C20.2862 23.644 20.2696 23.1131 20.2331 22.7598C19.9842 18.0883 17.9687 15.7526 14.1814 15.7526C12.1642 15.7526 10.6595 16.4078 9.66918 17.7167C8.67881 19.0272 8.14796 20.6198 8.07663 22.4944C8.04179 22.919 8.02354 23.5909 8.02354 24.5116C8.02354 25.4323 8.04013 26.1207 8.07663 26.5819C8.14796 28.3519 8.6954 29.8549 9.72226 31.0941C10.7491 32.3333 12.2355 32.9521 14.1814 32.9521ZM41.4803 38.6853C39.6755 38.6853 38.0132 38.3319 36.4904 37.6236C35.004 36.8804 33.8195 35.89 32.9337 34.6508C32.0969 33.4526 31.6519 32.0247 31.6596 30.5633C31.6596 28.1579 32.6334 26.2103 34.5793 24.7239C36.5269 23.2375 39.1977 22.2289 42.5951 21.6981L49.8678 20.6364V19.5216C49.8678 18.0004 49.4796 16.8508 48.6999 16.0711C47.9219 15.2914 46.6827 14.9032 44.984 14.9032C43.8161 14.9032 42.8788 15.1155 42.1705 15.5402C41.5348 15.9098 40.9465 16.3555 40.4186 16.8673L39.5693 17.7167C39.4283 18.1414 39.1629 18.3537 38.773 18.3537H34.6324C34.3197 18.356 34.0172 18.2425 33.783 18.0352C33.675 17.9227 33.5911 17.7894 33.5363 17.6433C33.4816 17.4973 33.4571 17.3416 33.4645 17.1859C33.501 16.3017 33.9257 15.3113 34.7386 14.2131C35.5879 13.0801 36.8802 12.1063 38.6138 11.2934C40.349 10.4441 42.489 10.0194 45.037 10.0194C49.2142 10.0194 52.2566 10.9567 54.1677 12.8329C56.0787 14.7074 57.0342 17.1676 57.0342 20.2117V36.8804C57.0373 37.0482 57.0059 37.2149 56.942 37.3701C56.8781 37.5253 56.783 37.6658 56.6626 37.7828C56.4503 38.0317 56.1501 38.1544 55.7602 38.1544H51.3542C51.1863 38.1575 51.0196 38.1261 50.8644 38.0622C50.7092 37.9982 50.5687 37.9032 50.4517 37.7828C50.3314 37.6658 50.2363 37.5253 50.1724 37.3701C50.1085 37.2149 50.0771 37.0482 50.0801 36.8804V34.8101C49.3021 35.9431 48.2056 36.8804 46.7888 37.6236C45.3738 38.3319 43.6037 38.6853 41.4803 38.6853ZM43.2852 33.5891C45.2328 33.5891 46.8253 32.9521 48.0629 31.6781C49.3021 30.404 49.9209 28.5643 49.9209 26.1572V25.0955L44.6124 25.9449C40.5431 26.5819 38.5076 27.9439 38.5076 30.0324C38.5076 31.1655 38.9688 32.0496 39.8878 32.6867C40.8433 33.2888 41.9764 33.5891 43.2852 33.5891ZM65.1181 38.1544C64.9503 38.1575 64.7836 38.1261 64.6283 38.0622C64.4731 37.9982 64.3327 37.9032 64.2156 37.7828C64.0953 37.6658 64.0002 37.5253 63.9363 37.3701C63.8724 37.2149 63.841 37.0482 63.8441 36.8804V11.8774C63.8376 11.7012 63.8673 11.5255 63.9312 11.3612C63.9951 11.1969 64.0919 11.0474 64.2156 10.9218C64.3327 10.8015 64.4731 10.7064 64.6283 10.6425C64.7836 10.5786 64.9503 10.5472 65.1181 10.5502H69.4711C69.6472 10.5438 69.8229 10.5735 69.9872 10.6374C70.1515 10.7013 70.301 10.7981 70.4266 10.9218C70.5504 11.0474 70.6472 11.1969 70.7111 11.3612C70.775 11.5255 70.8046 11.7012 70.7982 11.8774V14.0538C72.5682 11.7181 75.1163 10.5502 78.4408 10.5502H80.6703C81.0602 10.5502 81.3604 10.6746 81.5728 10.9218C81.8216 11.1342 81.9444 11.4361 81.9444 11.8243V15.6995C81.9474 15.8673 81.916 16.034 81.8521 16.1892C81.7882 16.3444 81.6931 16.4849 81.5728 16.6019C81.3604 16.8508 81.0585 16.9735 80.6703 16.9735H76.4766C74.8127 16.9735 73.5039 17.4513 72.5483 18.4068C71.5928 19.3623 71.115 20.6712 71.115 22.3351V36.8804C71.1181 37.0482 71.0867 37.2149 71.0228 37.3701C70.9589 37.5253 70.8638 37.6658 70.7434 37.7828C70.6264 37.9032 70.486 37.9982 70.3307 38.0622C70.1755 38.1261 70.0088 38.1575 69.841 38.1544H65.1164H65.1181ZM93.6844 38.6853C91.8796 38.6853 90.2173 38.3319 88.6945 37.6236C87.2081 36.8804 86.0236 35.89 85.1378 34.6508C84.301 33.4526 83.856 32.0247 83.8637 30.5633C83.8637 28.1579 84.8375 26.2103 86.7834 24.7239C88.7293 23.2375 91.4018 22.2289 94.7992 21.6981L102.072 20.6364V19.5216C102.072 18.0004 101.682 16.8508 100.904 16.0711C100.126 15.2914 98.8868 14.9032 97.188 14.9032C96.0202 14.9032 95.0812 15.1155 94.3745 15.5402C93.739 15.9099 93.1507 16.3556 92.6227 16.8673L91.7734 17.7167C91.6324 18.1414 91.367 18.3537 90.9771 18.3537H86.8365C86.5238 18.3558 86.2213 18.2424 85.9871 18.0352C85.8791 17.9227 85.7952 17.7894 85.7404 17.6433C85.6857 17.4973 85.6612 17.3416 85.6686 17.1859C85.7035 16.3017 86.1281 15.3113 86.9426 14.2131C87.792 13.0801 89.0826 12.1063 90.8179 11.2934C92.5514 10.4441 94.6931 10.0194 97.2411 10.0194C101.417 10.0194 104.461 10.9567 106.372 12.8329C108.283 14.7074 109.238 17.1676 109.238 20.2117V36.8804C109.241 37.0482 109.21 37.2148 109.146 37.37C109.082 37.5252 108.987 37.6657 108.867 37.7828C108.654 38.0317 108.354 38.1544 107.964 38.1544H103.558C103.39 38.1575 103.224 38.1261 103.069 38.0622C102.913 37.9982 102.773 37.9032 102.656 37.7828C102.536 37.6657 102.441 37.5252 102.377 37.37C102.313 37.2148 102.281 37.0482 102.284 36.8804V34.8101C101.506 35.9431 100.408 36.8804 98.9929 37.6236C97.5779 38.3319 95.8078 38.6853 93.6844 38.6853ZM95.4893 33.5891C97.4352 33.5891 99.0278 32.9521 100.267 31.6781C101.506 30.404 102.125 28.5643 102.125 26.1572V25.0955L96.8165 25.9449C92.7472 26.5819 90.7117 27.9439 90.7117 30.0324C90.7117 31.1655 91.1712 32.0496 92.0919 32.6867C93.0474 33.2888 94.1805 33.5891 95.4893 33.5891ZM117.375 38.1544C117.207 38.1576 117.041 38.1262 116.885 38.0623C116.73 37.9984 116.59 37.9033 116.473 37.7828C116.352 37.6659 116.257 37.5255 116.193 37.3702C116.129 37.215 116.098 37.0482 116.101 36.8804V1.73812C116.101 1.34828 116.224 1.04802 116.473 0.835678C116.59 0.715249 116.73 0.620127 116.885 0.556207C117.041 0.492286 117.207 0.460931 117.375 0.464083H121.834C122.223 0.464083 122.525 0.588501 122.737 0.835678C122.984 1.04802 123.108 1.34994 123.108 1.73812V36.8804C123.111 37.0482 123.08 37.2148 123.016 37.37C122.952 37.5252 122.857 37.6657 122.737 37.7828C122.525 38.0317 122.223 38.1544 121.834 38.1544H117.375ZM131.476 38.1544C131.308 38.1576 131.141 38.1262 130.986 38.0623C130.831 37.9984 130.69 37.9033 130.574 37.7828C130.453 37.6659 130.358 37.5255 130.294 37.3702C130.23 37.215 130.199 37.0482 130.202 36.8804V1.73812C130.202 1.34828 130.325 1.04802 130.574 0.835678C130.69 0.715249 130.831 0.620127 130.986 0.556207C131.141 0.492286 131.308 0.460931 131.476 0.464083H135.935C136.323 0.464083 136.625 0.588501 136.838 0.835678C137.085 1.04802 137.209 1.34994 137.209 1.73812V36.8804C137.212 37.0482 137.181 37.2148 137.117 37.37C137.053 37.5252 136.958 37.6657 136.838 37.7828C136.625 38.0317 136.323 38.1544 135.935 38.1544H131.476ZM156.194 38.6853C152.229 38.6853 149.08 37.5522 146.745 35.2878C144.444 33.0234 143.223 29.8018 143.082 25.6264L143.029 24.2992C143.029 19.8749 144.178 16.3896 146.479 13.8415C148.815 11.2934 152.035 10.0194 156.141 10.0194C160.351 10.0194 163.589 11.2934 165.855 13.8415C168.154 16.3896 169.306 19.787 169.306 24.0338V25.1486C169.309 25.3164 169.277 25.483 169.213 25.6382C169.149 25.7934 169.054 25.9339 168.934 26.051C168.808 26.1747 168.659 26.2714 168.495 26.3352C168.33 26.3991 168.155 26.4289 167.979 26.4226H150.354V26.8473C150.424 28.8297 150.955 30.4753 151.947 31.7842C152.972 33.0583 154.371 33.6953 156.141 33.6953C158.158 33.6953 159.803 32.8824 161.077 31.2534C161.396 30.8635 161.643 30.6346 161.821 30.5633C161.997 30.4571 162.298 30.404 162.723 30.404H167.395C167.713 30.404 167.979 30.4919 168.191 30.6694C168.31 30.752 168.407 30.8634 168.472 30.9933C168.537 31.1233 168.568 31.2675 168.562 31.4126C168.562 32.262 168.048 33.2706 167.023 34.4385C166.031 35.5715 164.598 36.5619 162.723 37.4112C160.847 38.2606 158.67 38.6853 156.194 38.6853ZM161.98 21.9104V21.8042C161.98 19.7157 161.449 18.0535 160.387 16.8143C159.361 15.5402 157.945 14.9032 156.141 14.9032C154.336 14.9032 152.919 15.5402 151.894 16.8143C150.867 18.0535 150.354 19.7173 150.354 21.8042V21.9104H161.98ZM176.266 38.1544C176.099 38.1576 175.932 38.1262 175.777 38.0623C175.621 37.9984 175.481 37.9033 175.364 37.7828C175.243 37.6659 175.148 37.5255 175.084 37.3702C175.02 37.215 174.989 37.0482 174.992 36.8804V1.73812C174.992 1.34828 175.115 1.04802 175.364 0.835678C175.481 0.715249 175.621 0.620127 175.777 0.556207C175.932 0.492286 176.099 0.460931 176.266 0.464083H180.726C181.114 0.464083 181.416 0.588501 181.628 0.835678C181.875 1.04802 182 1.34994 182 1.73812V36.8804C182.002 37.0482 181.971 37.2148 181.907 37.37C181.843 37.5252 181.748 37.6657 181.628 37.7828C181.416 38.0317 181.114 38.1544 180.726 38.1544H176.266Z" fill="white"/>
</svg>
